img/icons/social/insta.svg

<svg width="20" height="20" viewBox="0 0 20 20" fill="none" xmlns="http://www.w3.org/2000/svg">
<path d="M10.2316 2.35637C12.7555 2.35637 13.0544 2.36744 14.047 2.41172C14.9695 2.45231 15.4677 2.60729 15.7998 2.73644C16.2389 2.90618 16.5562 3.11282 16.8847 3.44123C17.2168 3.77333 17.4197 4.08698 17.5895 4.52609C17.7186 4.85819 17.8736 5.36003 17.9142 6.27884C17.9585 7.27515 17.9695 7.57404 17.9695 10.0943C17.9695 12.6183 17.9585 12.9172 17.9142 13.9098C17.8736 14.8323 17.7186 15.3304 17.5895 15.6625C17.4197 16.1016 17.2131 16.419 16.8847 16.7474C16.5526 17.0795 16.2389 17.2824 15.7998 17.4522C15.4677 17.5813 14.9659 17.7363 14.047 17.7769C13.0507 17.8212 12.7519 17.8323 10.2316 17.8323C7.70761 17.8323 7.40872 17.8212 6.41611 17.7769C5.49361 17.7363 4.99546 17.5813 4.66335 17.4522C4.22424 17.2824 3.9069 17.0758 3.57849 16.7474C3.24639 16.4153 3.04344 16.1016 2.8737 15.6625C2.74455 15.3304 2.58957 14.8286 2.54898 13.9098C2.5047 12.9135 2.49363 12.6146 2.49363 10.0943C2.49363 7.57035 2.5047 7.27146 2.54898 6.27884C2.58957 5.35634 2.74455 4.85819 2.8737 4.52609C3.04344 4.08698 3.25008 3.76964 3.57849 3.44123C3.91059 3.10913 4.22424 2.90618 4.66335 2.73644C4.99546 2.60729 5.4973 2.45231 6.41611 2.41172C7.40872 2.36744 7.70761 2.35637 10.2316 2.35637ZM10.2316 0.655273C7.66702 0.655273 7.34599 0.666343 6.33862 0.710624C5.33494 0.754904 4.6449 0.917264 4.04712 1.14973C3.42351 1.39327 2.89584 1.71431 2.37186 2.24198C1.84419 2.76596 1.52316 3.29363 1.27962 3.91355C1.04715 4.51502 0.884786 5.20136 0.840506 6.20504C0.796226 7.21611 0.785156 7.53714 0.785156 10.1017C0.785156 12.6662 0.796226 12.9873 0.840506 13.9946C0.884786 14.9983 1.04715 15.6884 1.27962 16.2861C1.52316 16.9098 1.84419 17.4374 2.37186 17.9614C2.89584 18.4854 3.42351 18.8101 4.04343 19.05C4.6449 19.2824 5.33125 19.4448 6.33493 19.4891C7.3423 19.5333 7.66333 19.5444 10.2279 19.5444C12.7924 19.5444 13.1135 19.5333 14.1208 19.4891C15.1245 19.4448 15.8146 19.2824 16.4123 19.05C17.0323 18.8101 17.5599 18.4854 18.0839 17.9614C18.6079 17.4374 18.9326 16.9098 19.1725 16.2898C19.4049 15.6884 19.5673 15.002 19.6116 13.9983C19.6559 12.991 19.6669 12.6699 19.6669 10.1054C19.6669 7.54083 19.6559 7.2198 19.6116 6.21242C19.5673 5.20874 19.4049 4.51871 19.1725 3.92093C18.94 3.29363 18.619 2.76596 18.0913 2.24198C17.5673 1.718 17.0396 1.39327 16.4197 1.15342C15.8182 0.920954 15.1319 0.758594 14.1282 0.714314C13.1172 0.666343 12.7961 0.655273 10.2316 0.655273Z" fill="white"/>
<path d="M10.2313 5.24902C7.55232 5.24902 5.37891 7.42244 5.37891 10.1014C5.37891 12.7803 7.55232 14.9537 10.2313 14.9537C12.9102 14.9537 15.0836 12.7803 15.0836 10.1014C15.0836 7.42244 12.9102 5.24902 10.2313 5.24902ZM10.2313 13.249C8.49327 13.249 7.08369 11.8394 7.08369 10.1014C7.08369 8.36339 8.49327 6.95381 10.2313 6.95381C11.9693 6.95381 13.3788 8.36339 13.3788 10.1014C13.3788 11.8394 11.9693 13.249 10.2313 13.249Z" fill="white"/>
<path d="M16.4102 5.05715C16.4102 5.68445 15.901 6.18998 15.2774 6.18998C14.6501 6.18998 14.1445 5.68076 14.1445 5.05715C14.1445 4.42985 14.6538 3.92432 15.2774 3.92432C15.901 3.92432 16.4102 4.43354 16.4102 5.05715Z" fill="white"/>
</svg>

<svg width="20" height="20" fill="none" xmlns="http://www.w3.org/2000/svg"><path d="M10.232 2.356c2.524 0 2.822.011 3.815.056.922.04 1.42.195 1.753.324.439.17.756.377 1.085.705.332.332.535.646.704 1.085.13.332.285.834.325 1.753.044.996.055 1.295.055 3.815 0 2.524-.01 2.823-.055 3.816-.04.922-.195 1.42-.325 1.752-.17.44-.376.757-.704 1.085a2.906 2.906 0 01-1.085.705c-.332.13-.834.284-1.753.325-.996.044-1.295.055-3.815.055-2.524 0-2.823-.01-3.816-.055-.922-.04-1.42-.196-1.753-.325a2.922 2.922 0 01-1.085-.705 2.906 2.906 0 01-.704-1.085c-.13-.332-.284-.833-.325-1.752-.044-.996-.055-1.295-.055-3.816 0-2.524.01-2.823.055-3.815.04-.923.196-1.42.325-1.753.17-.439.376-.756.704-1.085a2.906 2.906 0 011.085-.705c.332-.129.834-.284 1.753-.324.993-.045 1.292-.056 3.816-.056zm0-1.7c-2.565 0-2.886.01-3.893.055-1.004.044-1.694.206-2.292.439a4.61 4.61 0 00-1.675 1.092A4.629 4.629 0 001.28 3.914C1.047 4.515.885 5.2.84 6.205.797 7.216.786 7.537.786 10.102c0 2.564.011 2.885.056 3.893.044 1.003.206 1.693.439 2.291a4.61 4.61 0 001.092 1.675 4.618 4.618 0 001.671 1.089c.602.232 1.288.395 2.292.44 1.007.043 1.328.054 3.893.054 2.564 0 2.886-.01 3.893-.055 1.003-.044 1.694-.207 2.291-.439a4.618 4.618 0 001.672-1.089 4.618 4.618 0 001.088-1.671c.233-.602.395-1.288.44-2.292.044-1.007.055-1.328.055-3.893 0-2.564-.011-2.885-.055-3.893-.045-1.003-.207-1.693-.44-2.291a4.425 4.425 0 00-1.08-1.679 4.618 4.618 0 00-1.672-1.089C15.818.921 15.132.76 14.128.714c-1.01-.048-1.332-.059-3.896-.059z" fill="#fff"/><path d="M10.231 5.249a4.854 4.854 0 000 9.705 4.854 4.854 0 000-9.705zm0 8a3.148 3.148 0 11.001-6.296 3.148 3.148 0 010 6.296zm6.179-8.192a1.133 1.133 0 11-2.266 0 1.133 1.133 0 012.266 0z" fill="#fff"/></svg>
